X: 1
T: Reign Of Love
R: march
M: 4/4
L: 1/8
K:Emin
|:"Em"E2FG A2B2|G4F4|"D"A2GF E2A2|GFE2 FED2|
  "Em"E2FG A2B2|G4F4|"D"A2GF E2D2|1"A"E6 B,2 :|2 "A" E8 ||
"Em"e2B2d2A2-|A2BA G2F2|"D"A2GF E2A2|"G"B2G2 "B"d4|
"Em"e2B2d2A2-|A2BA G2F2|"D"A2GF E2D2 | "A" E8 :||



%%newpage
%% header "Randy+Will+Noel - Waltz		$P"

